X: 1720
T: Molly Malone
B: australian traditional tunes wiki
M:3/4
L:1/8
R: Waltz
Q: 1/4=100
K:D
V:1 
B2c2||"D"d2FG AF|"A7"G2F2E2|"D"F2A2AB|"D"A2F2A2|"G"G2GAB2|"A7"c2B2A2|"D"d2dcd2|"A7"A2B2c2|
"D"d2FG AF|"A7"G2F2E2|"D"F2A2AB|!"D"A4B2|"A7"c2e3c|"E7"d2c2B2|"A7"A3BA2|"A7"G2F2A2||
|"D"d3cd2|"D7"d2c2=c2|"G"B2GFG2|"G"G2A2B2|"E7"e2e2ef|!"E7"e2d2B2|"A7"c2A2B2|"A7"c>BA2Bc|
"D"d2FG AF|"A7"G2F2E2|"D"F2G2A2|"G"B4e2|"E7"d3Bc2|"A7"B2A2B2|"D"d3cd2|"D"d4z2||
% abcbook-tune_id 6342d53ad13455cf6ddb291d


% abcbook-boost 0
% abcbook-tablature 
% abcbook-transpose 
% abcbook-lastupdated 1665324379952
% abcbook-soundfonts 
% abcbook-repeats 1
% NFF Book 2013

